X:1171
M:C
L:1/8
Q:1/2=76
K:D
a>g|{g}f2 (ed) (fe) (dc)|d>c`dA  Te>deA |fa``ba    gf``ed       |e2 A>A A2
a>g|{g}f2  ed   fe   dc |d>c`df   e>deg |fb``c'd'  e2T^g2       |a2 a>a a2:|
f>g|   a>f b>a  gf```ef |g>e a>g  f>ede |f>a g>b   af``ed       |e2 A>A A2

